material/.icons/material/timer-sand-full.svg

<svg xmlns="http://www.w3.org/2000/svg" viewBox="0 0 24 24"><path d="M6 2v6l4 4-4 4v6h12v-6l-4-4 4-4V2H6z"/></svg>

<?xml version="1.0" encoding="UTF-8"?><!DOCTYPE svg PUBLIC "-//W3C//DTD SVG 1.1//EN" "http://www.w3.org/Graphics/SVG/1.1/DTD/svg11.dtd"><svg xmlns="http://www.w3.org/2000/svg" xmlns:xlink="http://www.w3.org/1999/xlink" version="1.1" id="mdi-timer-sand-full" width="24" height="24" viewBox="0 0 24 24"><path d="M6,2V8H6V8L10,12L6,16V16H6V22H18V16H18V16L14,12L18,8V8H18V2H6Z" /></svg>
